X:4630
T:Polska
A:Jmtland
C:e. Kristian Oscarsson
M:3/4
O:Sweden
R:Polska
Z:Richard Robinson 
%%TUNEURL: http://www.leeds.ac.uk/music/Info/RRTuneBk/gettune/00000b23.html
%%ID:00000b23
K:A
ef/e/ de c>e|a/g/f ed c>c|\
(3dBd (3cAc B>G|A>A cA E2|\
ef/e/ de c>e| a/g/f ed c>c|
(3dBd (3cAc B>G|(3ABc A4::\
A,>A, (3A,B,C (3A,B,C|D>D (3DEF (3DEF|
E>E (3EFG (3EFG|A>A c<A E>C|\
A,>A, (3A,B,C (3A,B,C| D>D (3DEF (3DEF|\
E>E (3EFG (3EFG|A2A4:|
